X:1
T:Pack Up Your Troubles in Your Old Kit-Bag
C:Felix Powell
M:6/8
L:1/8
Q:1/4=120
K:G
% Verse
|: G|G2A B2c|BAG G3|G2A B2c|BAG G3|
G2A Bcd|cBA G3|G2A B2A|G6:|
% Chorus
|: B|B2c d2c|BAG G3|B2c d2c|BAG G3|
c2d cBA|G2A B3|G2A B2c|G6|]
